client/src/assets/effect/start-blur.svg

<svg xmlns="http://www.w3.org/2000/svg" width="4216" height="3756" fill="none"><g filter="url(#a)"><path fill="#C8B8FF" d="M2088.67 1141.16c282.57-72.1 434.46-244.3 721.47-192.649 664.46 119.579 578.49 1380.339 0 1728.319-348.07 209.38-667.81 162.27-1040.2 0-363.31-158.31-504.09-296.68-705.03-638.19-73.062-124.17-158.601-357.18-113.245-524.06 51.725-190.34 199.315-278.71 392.705-317.73 199.09-40.17 393.61 33.78 744.3-55.69Z"/></g><g filter="url(#b)"><path fill="#7349D6" d="M2258.8 1381.38c242.08-61.78 372.21-209.35 618.1-165.08 569.24 102.46 495.6 1182.88 0 1481.07-298.2 179.43-572.13 139.06-891.16 0-311.25-135.66-431.86-254.23-604.01-546.89-62.59-106.41-135.87-306.09-97.01-449.1 44.31-163.11 170.75-238.83 336.43-272.27 170.56-34.43 337.21 28.95 637.65-47.73Z"/></g><g filter="url(#c)"><ellipse cx="2589.44" cy="2189.72" fill="#87EDFF" rx="870.809" ry="593.057" transform="rotate(21.91 2589.44 2189.72)"/></g><defs><filter id="a" width="4215.56" height="3755.51" x=".1229" y=".1229" color-interpolation-filters="sRGB" filterUnits="userSpaceOnUse"><feFlood flood-opacity="0" result="BackgroundImageFix"/><feBlend in="SourceGraphic" in2="BackgroundImageFix" result="shape"/><feGaussianBlur result="effect1_foregroundBlur_1885_605" stdDeviation="469.439"/></filter><filter id="b" width="3254.66" height="2860.97" x="647.948" y="582.226" color-interpolation-filters="sRGB" filterUnits="userSpaceOnUse"><feFlood flood-opacity="0" result="BackgroundImageFix"/><feBlend in="SourceGraphic" in2="BackgroundImageFix" result="shape"/><feGaussianBlur result="effect1_foregroundBlur_1885_605" stdDeviation="312.959"/></filter><filter id="c" width="2927.6" height="2530.06" x="1125.64" y="924.691" color-interpolation-filters="sRGB" filterUnits="userSpaceOnUse"><feFlood flood-opacity="0" result="BackgroundImageFix"/><feBlend in="SourceGraphic" in2="BackgroundImageFix" result="shape"/><feGaussianBlur result="effect1_foregroundBlur_1885_605" stdDeviation="312.959"/></filter></defs></svg>

<svg width="4216" height="3756" viewBox="0 0 4216 3756" fill="none" xmlns="http://www.w3.org/2000/svg">
<g filter="url(#filter0_f_1885_605)">
<path d="M2088.67 1141.16C2371.24 1069.06 2523.13 896.86 2810.14 948.511C3474.6 1068.09 3388.63 2328.85 2810.14 2676.83C2462.07 2886.21 2142.33 2839.1 1769.94 2676.83C1406.63 2518.52 1265.85 2380.15 1064.91 2038.64C991.848 1914.47 906.309 1681.46 951.665 1514.58C1003.39 1324.24 1150.98 1235.87 1344.37 1196.85C1543.46 1156.68 1737.98 1230.63 2088.67 1141.16Z" fill="#C8B8FF"/>
</g>
<g filter="url(#filter1_f_1885_605)">
<path d="M2258.8 1381.38C2500.88 1319.6 2631.01 1172.03 2876.9 1216.3C3446.14 1318.76 3372.5 2399.18 2876.9 2697.37C2578.7 2876.8 2304.77 2836.43 1985.74 2697.37C1674.49 2561.71 1553.88 2443.14 1381.73 2150.48C1319.14 2044.07 1245.86 1844.39 1284.72 1701.38C1329.03 1538.27 1455.47 1462.55 1621.15 1429.11C1791.71 1394.68 1958.36 1458.06 2258.8 1381.38Z" fill="#7349D6"/>
</g>
<g filter="url(#filter2_f_1885_605)">
<ellipse cx="2589.44" cy="2189.72" rx="870.809" ry="593.057" transform="rotate(21.9106 2589.44 2189.72)" fill="#87EDFF"/>
</g>
<defs>
<filter id="filter0_f_1885_605" x="0.122864" y="0.122864" width="4215.56" height="3755.51" filterUnits="userSpaceOnUse" color-interpolation-filters="sRGB">
<feFlood flood-opacity="0" result="BackgroundImageFix"/>
<feBlend mode="normal" in="SourceGraphic" in2="BackgroundImageFix" result="shape"/>
<feGaussianBlur stdDeviation="469.439" result="effect1_foregroundBlur_1885_605"/>
</filter>
<filter id="filter1_f_1885_605" x="647.948" y="582.226" width="3254.66" height="2860.97" filterUnits="userSpaceOnUse" color-interpolation-filters="sRGB">
<feFlood flood-opacity="0" result="BackgroundImageFix"/>
<feBlend mode="normal" in="SourceGraphic" in2="BackgroundImageFix" result="shape"/>
<feGaussianBlur stdDeviation="312.959" result="effect1_foregroundBlur_1885_605"/>
</filter>
<filter id="filter2_f_1885_605" x="1125.64" y="924.691" width="2927.6" height="2530.06" filterUnits="userSpaceOnUse" color-interpolation-filters="sRGB">
<feFlood flood-opacity="0" result="BackgroundImageFix"/>
<feBlend mode="normal" in="SourceGraphic" in2="BackgroundImageFix" result="shape"/>
<feGaussianBlur stdDeviation="312.959" result="effect1_foregroundBlur_1885_605"/>
</filter>
</defs>
</svg>
